X: 169
U:~=!turn!
M:C
L:1/8
K:E aeolian
dB{/F}GB {/^c}d2 {AB}(=cB) | ABcd BcAB | {/F}G2 E2 E2 || (dc) | B2 {/F}G2 G2 (dc) | B2 G2 G2 (ed) |
{AB}c2 A2 A2 (eg) | {/g}a2 A2 A2 (BA) | B2 G2 d2 G2 | g2 G2 d2 (cB) | ABcd BcAB | {/F}G2 E2 E2 |]


